public/assets/img/tailwindcss.svg

<svg viewBox="0 0 273 64" fill="none" xmlns="http://www.w3.org/2000/svg"><path fill-rule="evenodd" clip-rule="evenodd" d="M32 16c-7.2 0-11.7 3.6-13.5 10.8 2.7-3.6 5.85-4.95 9.45-4.05 2.054.514 3.522 2.004 5.147 3.653C35.744 29.09 38.808 32.2 45.5 32.2c7.2 0 11.7-3.6 13.5-10.8-2.7 3.6-5.85 4.95-9.45 4.05-2.054-.514-3.522-2.004-5.147-3.653C41.756 19.11 38.692 16 32 16zM18.5 32.2C11.3 32.2 6.8 35.8 5 43c2.7-3.6 5.85-4.95 9.45-4.05 2.054.514 3.522 2.004 5.147 3.653C22.244 45.29 25.308 48.4 32 48.4c7.2 0 11.7-3.6 13.5-10.8-2.7 3.6-5.85 4.95-9.45 4.05-2.054-.514-3.522-2.004-5.147-3.653C28.256 35.31 25.192 32.2 18.5 32.2z" fill="#16BDCA"/><path fill-rule="evenodd" clip-rule="evenodd" d="M85.996 29.652h-4.712v9.12c0 2.432 1.596 2.394 4.712 2.242V44.7c-6.308.76-8.816-.988-8.816-5.928v-9.12h-3.496V25.7h3.496v-5.104l4.104-1.216v6.32h4.712v3.952zm17.962-3.952h4.104v19h-4.104v-2.736c-1.444 2.014-3.686 3.23-6.65 3.23-5.168 0-9.462-4.37-9.462-9.994 0-5.662 4.294-9.994 9.462-9.994 2.964 0 5.206 1.216 6.65 3.192V25.7zm-6.004 15.58c3.42 0 6.004-2.546 6.004-6.08 0-3.534-2.584-6.08-6.004-6.08-3.42 0-6.004 2.546-6.004 6.08 0 3.534 2.584 6.08 6.004 6.08zm16.948-18.43c-1.444 0-2.622-1.216-2.622-2.622a2.627 2.627 0 012.622-2.622 2.627 2.627 0 012.622 2.622c0 1.406-1.178 2.622-2.622 2.622zM112.85 44.7v-19h4.104v19h-4.104zm8.854 0V16.96h4.104V44.7h-4.104zm30.742-19h4.332l-5.966 19h-4.028l-3.952-12.806-3.99 12.806h-4.028l-5.966-19h4.332l3.686 13.11 3.99-13.11h3.914l3.952 13.11 3.724-13.11zm9.424-2.85c-1.444 0-2.622-1.216-2.622-2.622a2.627 2.627 0 012.622-2.622 2.627 2.627 0 012.622 2.622c0 1.406-1.178 2.622-2.622 2.622zm-2.052 21.85v-19h4.104v19h-4.104zm18.848-19.494c4.256 0 7.296 2.888 7.296 7.828V44.7h-4.104V33.452c0-2.888-1.672-4.408-4.256-4.408-2.698 0-4.826 1.596-4.826 5.472V44.7h-4.104v-19h4.104v2.432c1.254-1.976 3.306-2.926 5.89-2.926zm26.752-7.106h4.104v26.6h-4.104v-2.736c-1.444 2.014-3.686 3.23-6.65 3.23-5.168 0-9.462-4.37-9.462-9.994 0-5.662 4.294-9.994 9.462-9.994 2.964 0 5.206 1.216 6.65 3.192V18.1zm-6.004 23.18c3.42 0 6.004-2.546 6.004-6.08 0-3.534-2.584-6.08-6.004-6.08-3.42 0-6.004 2.546-6.004 6.08 0 3.534 2.584 6.08 6.004 6.08zm23.864 3.914c-5.738 0-10.032-4.37-10.032-9.994 0-5.662 4.294-9.994 10.032-9.994 3.724 0 6.954 1.938 8.474 4.902l-3.534 2.052c-.836-1.786-2.698-2.926-4.978-2.926-3.344 0-5.89 2.546-5.89 5.966 0 3.42 2.546 5.966 5.89 5.966 2.28 0 4.142-1.178 5.054-2.926l3.534 2.014c-1.596 3.002-4.826 4.94-8.55 4.94zm15.314-14.25c0 3.458 10.222 1.368 10.222 8.398 0 3.8-3.306 5.852-7.41 5.852-3.8 0-6.536-1.71-7.752-4.446l3.534-2.052c.608 1.71 2.128 2.736 4.218 2.736 1.824 0 3.23-.608 3.23-2.128 0-3.382-10.222-1.482-10.222-8.284 0-3.572 3.078-5.814 6.954-5.814 3.116 0 5.7 1.444 7.03 3.952l-3.458 1.938c-.684-1.482-2.014-2.166-3.572-2.166-1.482 0-2.774.646-2.774 2.014zm17.518 0c0 3.458 10.222 1.368 10.222 8.398 0 3.8-3.306 5.852-7.41 5.852-3.8 0-6.536-1.71-7.752-4.446l3.534-2.052c.608 1.71 2.128 2.736 4.218 2.736 1.824 0 3.23-.608 3.23-2.128 0-3.382-10.222-1.482-10.222-8.284 0-3.572 3.078-5.814 6.954-5.814 3.116 0 5.7 1.444 7.03 3.952l-3.458 1.938c-.684-1.482-2.014-2.166-3.572-2.166-1.482 0-2.774.646-2.774 2.014z" fill="#161E2E"/></svg>

<svg viewBox="0 0 273 64" fill="none" xmlns="http://www.w3.org/2000/svg">
  <title>
    Tailwind CSS
  </title>
  <path fill-rule="evenodd" clip-rule="evenodd" d="M32 16C24.8 16 20.3 19.6 18.5 26.8C21.2 23.2 24.35 21.85 27.95 22.75C30.004 23.2635 31.4721 24.7536 33.0971 26.4031C35.7443 29.0901 38.8081 32.2 45.5 32.2C52.7 32.2 57.2 28.6 59 21.4C56.3 25 53.15 26.35 49.55 25.45C47.496 24.9365 46.0279 23.4464 44.4029 21.7969C41.7557 19.1099 38.6919 16 32 16ZM18.5 32.2C11.3 32.2 6.8 35.8 5 43C7.7 39.4 10.85 38.05 14.45 38.95C16.504 39.4635 17.9721 40.9536 19.5971 42.6031C22.2443 45.2901 25.3081 48.4 32 48.4C39.2 48.4 43.7 44.8 45.5 37.6C42.8 41.2 39.65 42.55 36.05 41.65C33.996 41.1365 32.5279 39.6464 30.9029 37.9969C28.2557 35.3099 25.1919 32.2 18.5 32.2Z" fill="#16BDCA"/>
  <path fill-rule="evenodd" clip-rule="evenodd" d="M85.996 29.652H81.284V38.772C81.284 41.204 82.88 41.166 85.996 41.014V44.7C79.688 45.46 77.18 43.712 77.18 38.772V29.652H73.684V25.7H77.18V20.596L81.284 19.38V25.7H85.996V29.652ZM103.958 25.7H108.062V44.7H103.958V41.964C102.514 43.978 100.272 45.194 97.308 45.194C92.14 45.194 87.846 40.824 87.846 35.2C87.846 29.538 92.14 25.206 97.308 25.206C100.272 25.206 102.514 26.422 103.958 28.398V25.7ZM97.954 41.28C101.374 41.28 103.958 38.734 103.958 35.2C103.958 31.666 101.374 29.12 97.954 29.12C94.534 29.12 91.95 31.666 91.95 35.2C91.95 38.734 94.534 41.28 97.954 41.28ZM114.902 22.85C113.458 22.85 112.28 21.634 112.28 20.228C112.28 18.784 113.458 17.606 114.902 17.606C116.346 17.606 117.524 18.784 117.524 20.228C117.524 21.634 116.346 22.85 114.902 22.85ZM112.85 44.7V25.7H116.954V44.7H112.85ZM121.704 44.7V16.96H125.808V44.7H121.704ZM152.446 25.7H156.778L150.812 44.7H146.784L142.832 31.894L138.842 44.7H134.814L128.848 25.7H133.18L136.866 38.81L140.856 25.7H144.77L148.722 38.81L152.446 25.7ZM161.87 22.85C160.426 22.85 159.248 21.634 159.248 20.228C159.248 18.784 160.426 17.606 161.87 17.606C163.314 17.606 164.492 18.784 164.492 20.228C164.492 21.634 163.314 22.85 161.87 22.85ZM159.818 44.7V25.7H163.922V44.7H159.818ZM178.666 25.206C182.922 25.206 185.962 28.094 185.962 33.034V44.7H181.858V33.452C181.858 30.564 180.186 29.044 177.602 29.044C174.904 29.044 172.776 30.64 172.776 34.516V44.7H168.672V25.7H172.776V28.132C174.03 26.156 176.082 25.206 178.666 25.206ZM205.418 18.1H209.522V44.7H205.418V41.964C203.974 43.978 201.732 45.194 198.768 45.194C193.6 45.194 189.306 40.824 189.306 35.2C189.306 29.538 193.6 25.206 198.768 25.206C201.732 25.206 203.974 26.422 205.418 28.398V18.1ZM199.414 41.28C202.834 41.28 205.418 38.734 205.418 35.2C205.418 31.666 202.834 29.12 199.414 29.12C195.994 29.12 193.41 31.666 193.41 35.2C193.41 38.734 195.994 41.28 199.414 41.28ZM223.278 45.194C217.54 45.194 213.246 40.824 213.246 35.2C213.246 29.538 217.54 25.206 223.278 25.206C227.002 25.206 230.232 27.144 231.752 30.108L228.218 32.16C227.382 30.374 225.52 29.234 223.24 29.234C219.896 29.234 217.35 31.78 217.35 35.2C217.35 38.62 219.896 41.166 223.24 41.166C225.52 41.166 227.382 39.988 228.294 38.24L231.828 40.254C230.232 43.256 227.002 45.194 223.278 45.194ZM238.592 30.944C238.592 34.402 248.814 32.312 248.814 39.342C248.814 43.142 245.508 45.194 241.404 45.194C237.604 45.194 234.868 43.484 233.652 40.748L237.186 38.696C237.794 40.406 239.314 41.432 241.404 41.432C243.228 41.432 244.634 40.824 244.634 39.304C244.634 35.922 234.412 37.822 234.412 31.02C234.412 27.448 237.49 25.206 241.366 25.206C244.482 25.206 247.066 26.65 248.396 29.158L244.938 31.096C244.254 29.614 242.924 28.93 241.366 28.93C239.884 28.93 238.592 29.576 238.592 30.944ZM256.11 30.944C256.11 34.402 266.332 32.312 266.332 39.342C266.332 43.142 263.026 45.194 258.922 45.194C255.122 45.194 252.386 43.484 251.17 40.748L254.704 38.696C255.312 40.406 256.832 41.432 258.922 41.432C260.746 41.432 262.152 40.824 262.152 39.304C262.152 35.922 251.93 37.822 251.93 31.02C251.93 27.448 255.008 25.206 258.884 25.206C262 25.206 264.584 26.65 265.914 29.158L262.456 31.096C261.772 29.614 260.442 28.93 258.884 28.93C257.402 28.93 256.11 29.576 256.11 30.944Z" fill="#161E2E"/>
</svg>
